icons/svg/gender-transgender.svg

﻿<?xml version="1.0" encoding="utf-8"?>
<!DOCTYPE svg PUBLIC "-//W3C//DTD SVG 1.1//EN" "http://www.w3.org/Graphics/SVG/1.1/DTD/svg11.dtd">
<svg xmlns="http://www.w3.org/2000/svg" xmlns:xlink="http://www.w3.org/1999/xlink" version="1.1" baseProfile="full" width="24" height="24" viewBox="0 0 24.00 24.00" enable-background="new 0 0 24.00 24.00" xml:space="preserve">
	<path fill="#000000" fill-opacity="1" stroke-width="0.2" stroke-linejoin="round" d="M 19.5815,3L 15,3L 15,1L 23,1L 23,9L 21,9L 21,4.40989L 16.1699,9.24001C 16.6945,10.031 17,10.9798 17,12C 17,14.419 15.2822,16.4367 13,16.9L 13,19L 15,19L 15,21L 13,21L 13,23L 11,23L 11,21L 9,21L 9,19L 11,19L 11,16.9C 8.71776,16.4367 7,14.419 7,12C 7,10.9869 7.30131,10.0442 7.81921,9.25653L 6.63745,8.07016L 5.23865,9.4615L 3.82822,8.04352L 5.22599,6.6532L 3,4.41854L 3.00001,8.00001L 1.00001,8.00001L 1,1.00001L 8,1.00001L 8,3.00001L 4.40989,3L 6.64397,5.24278L 8.08218,3.81223L 9.49261,5.23022L 8.05543,6.65973L 9.22874,7.83762C 10.0219,7.30846 10.975,7 12,7C 13.018,7 13.9649,7.30421 14.7548,7.82668L 19.5815,3 Z M 12,9C 10.3431,9 9,10.3432 9,12C 9,13.6569 10.3431,15 12,15C 13.6569,15 15,13.6569 15,12C 15,10.3431 13.6569,9 12,9 Z "/>
</svg>

<svg xmlns="http://www.w3.org/2000/svg" version="1.1" baseProfile="full" width="24" height="24" viewBox="0 0 24.00 24.00" xml:space="preserve"><path fill="#000" fill-opacity="1" stroke-width=".2" stroke-linejoin="round" d="M19.581 3H15V1h8v8h-2V4.41l-4.83 4.83c.524.79.83 1.74.83 2.76 0 2.42-1.718 4.437-4 4.9V19h2v2h-2v2h-2v-2H9v-2h2v-2.1c-2.282-.463-4-2.48-4-4.9 0-1.013.3-1.956.82-2.743L6.636 8.07 5.24 9.46 3.827 8.045l1.398-1.39L3 4.418V8H1V1h7v2H4.41l2.234 2.243 1.438-1.43 1.41 1.417-1.437 1.43L9.23 7.838C10.02 7.308 10.974 7 12 7c1.018 0 1.965.304 2.755.827L19.58 3zM12 9c-1.657 0-3 1.343-3 3s1.343 3 3 3 3-1.343 3-3-1.343-3-3-3z"/></svg>
